img/logo-full.svg

<svg width="156" height="48" viewBox="0 0 156 48" fill="none" xmlns="http://www.w3.org/2000/svg">
<path d="M94.9998 38.979H95.5198H96.6398C97.0114 38.9713 97.382 39.0187 97.7398 39.1191C98.0076 39.1919 98.2566 39.3213 98.4698 39.499C98.6518 39.6498 98.7899 39.8465 98.8698 40.0688C98.9588 40.2913 99.003 40.5294 98.9998 40.769C99.0137 41.1481 98.9011 41.521 98.6798 41.8291C98.468 42.0996 98.1836 42.3041 97.8598 42.4189C98.243 42.4855 98.594 42.6751 98.8598 42.959C99.1346 43.2808 99.2744 43.6966 99.2498 44.1191C99.2628 44.4636 99.1942 44.8062 99.0498 45.1191C98.9171 45.3825 98.7255 45.6117 98.4898 45.7891C98.2317 45.9682 97.944 46.1004 97.6398 46.1792C97.2925 46.2614 96.9367 46.3013 96.5798 46.2988H94.9998H94.6098V39.0991L94.9998 38.979ZM96.1198 39.979H95.6898V42.0591H96.6898C96.8525 42.0618 97.0146 42.0383 97.1698 41.9893C97.3118 41.9492 97.4444 41.881 97.5598 41.7891C97.6736 41.6969 97.7658 41.581 97.8298 41.4492C97.8913 41.3003 97.9219 41.1401 97.9198 40.979C97.9302 40.8327 97.9046 40.686 97.8454 40.5518C97.7861 40.4176 97.6949 40.2999 97.5798 40.209C97.2899 40.0015 96.9348 39.9056 96.5798 39.939L96.1198 39.979ZM95.6898 45.2192H96.0998H96.6698C97.0624 45.2411 97.4516 45.1356 97.7798 44.9189C97.9136 44.8169 98.0195 44.6831 98.0877 44.5293C98.1558 44.3755 98.1841 44.2067 98.1698 44.0391C98.18 43.8858 98.1504 43.7327 98.0838 43.5942C98.0172 43.4558 97.9159 43.3367 97.7898 43.249C97.4666 43.0586 97.0943 42.9684 96.7198 42.9893H95.7198L95.6898 45.2192ZM106.84 38.999V39.999H103.8V42.0688H106.55V43.0688H103.8V45.209H107V46.209H102.77V38.979L106.84 38.999ZM111.36 43.0488V46.229H110.29V38.999H111.36V41.999H115V38.999H116.06V46.229H115V43.0488H111.36ZM119.93 45.2192C120.044 45.0637 120.142 44.896 120.22 44.7192C120.365 44.4139 120.482 44.0957 120.57 43.769C120.707 43.3031 120.814 42.8288 120.89 42.3491C120.995 41.7204 121.061 41.086 121.09 40.4492L121.16 38.999H125.53V45.2192H126.53V47.519H125.53V46.1992H120.19V47.519H119.19V45.189L119.93 45.2192ZM121.93 42.769C121.85 43.219 121.76 43.6092 121.67 43.9492C121.588 44.2275 121.491 44.5011 121.38 44.769C121.312 44.9251 121.232 45.0758 121.14 45.2192H124.47V40.0093H122.22L122.12 41.2788C122.086 41.7689 122.023 42.2569 121.93 42.7393V42.769ZM129.7 38.999H130.77V44.459L134.86 38.999H135.8V46.229H134.72V40.7788L130.64 46.229H129.7V38.999ZM140.7 43.0488V46.229H139.6V38.999H140.67V41.999H144.31V38.999H145.38V46.229H144.31V43.0488H140.7ZM153.26 38.999V39.999H150.26V46.2192H149.19V38.9893L153.26 38.999ZM151.17 24.519C151.156 24.2587 151.196 23.9981 151.287 23.7539C151.378 23.5097 151.519 23.2872 151.7 23.0996C151.881 22.912 152.099 22.7634 152.339 22.6636C152.58 22.5637 152.839 22.5146 153.1 22.519C153.498 22.5051 153.891 22.6107 154.229 22.8218C154.567 23.0329 154.835 23.3401 154.997 23.7041C155.159 24.0681 155.209 24.4723 155.14 24.8647C155.07 25.2572 154.886 25.62 154.609 25.9067C154.332 26.1935 153.976 26.3911 153.586 26.4741C153.197 26.5571 152.791 26.5217 152.421 26.3726C152.052 26.2235 151.735 25.9674 151.512 25.6372C151.289 25.307 151.17 24.9175 151.17 24.519ZM75.2398 19.3789L75.5298 19.8789L75.2098 19.2988L75.0298 18.9492V18.8789C75.0698 19.0889 75.1598 19.2589 75.2398 19.4189V19.3789ZM126.84 8.49902C125.891 7.56069 124.775 6.80757 123.55 6.27881C122.273 5.73135 120.899 5.44922 119.51 5.44922C118.121 5.44922 116.746 5.73135 115.47 6.27881C114.229 6.82694 113.1 7.60022 112.14 8.55908C111.125 9.61171 110.335 10.8605 109.82 12.229C109.388 13.3693 109.171 14.5795 109.18 15.7988V24.1689C109.18 24.6994 109.391 25.2084 109.766 25.5835C110.141 25.9586 110.649 26.1689 111.18 26.1689C111.606 26.1755 112.023 26.0457 112.37 25.7988C112.708 25.5532 112.955 25.2011 113.07 24.7988C113.074 24.7878 113.077 24.7762 113.077 24.7642C113.077 24.7521 113.074 24.7401 113.07 24.729C113.063 24.7096 113.063 24.6884 113.07 24.6689C113.253 24.0323 113.548 23.433 113.94 22.8989C114.318 22.3639 114.78 21.8947 115.31 21.5093C115.845 21.1233 116.435 20.8195 117.06 20.6089C117.706 20.3982 118.381 20.2904 119.06 20.2891C119.176 20.3045 119.294 20.3045 119.41 20.2891H125.75V24.1489C125.745 24.4144 125.796 24.6783 125.899 24.9229C126.003 25.1674 126.156 25.3872 126.35 25.5688C126.538 25.7554 126.761 25.9029 127.007 26.0024C127.252 26.102 127.515 26.1518 127.78 26.1489C128.31 26.1489 128.819 25.9385 129.194 25.5635C129.569 25.1884 129.78 24.6794 129.78 24.1489V15.7788C129.779 14.4038 129.5 13.0431 128.96 11.7788C128.462 10.5699 127.743 9.46467 126.84 8.51904V8.49902ZM125.84 16.3091H119.15C116.999 16.2921 114.899 16.9572 113.15 18.209V15.8188C113.149 15.1181 113.264 14.4225 113.49 13.7593C113.729 13.121 114.067 12.5238 114.49 11.9893C115.078 11.238 115.818 10.6178 116.66 10.1689C117.538 9.70677 118.517 9.46975 119.51 9.479C120.474 9.46576 121.428 9.67756 122.296 10.0977C123.164 10.5178 123.922 11.1345 124.51 11.8989C124.604 12.0101 124.69 12.1271 124.77 12.249L125.03 12.6392C125.025 12.6555 125.025 12.6726 125.03 12.689C125.564 13.6304 125.84 14.6963 125.83 15.7788L125.84 16.3091ZM64.4898 5.51904C64.0865 5.5191 63.6926 5.6412 63.3598 5.86914L57.4398 11.8691C57.0848 12.1981 56.6187 12.3809 56.1348 12.3809C55.6509 12.3809 55.1848 12.1981 54.8298 11.8691L49.0998 6.10889L48.8398 5.87891C48.507 5.65096 48.1132 5.52886 47.7098 5.52881C47.4475 5.52288 47.1868 5.57156 46.9441 5.67139C46.7014 5.77121 46.482 5.92009 46.2998 6.10889C46.1107 6.29301 45.9616 6.51447 45.8618 6.75879C45.762 7.00311 45.7137 7.26496 45.7198 7.52881V24.229C45.7137 24.4928 45.762 24.7552 45.8618 24.9995C45.9616 25.2438 46.1107 25.4648 46.2998 25.6489C46.6826 26.0215 47.1956 26.23 47.7298 26.23C48.264 26.23 48.7771 26.0215 49.1598 25.6489C49.3489 25.4648 49.498 25.2438 49.5978 24.9995C49.6976 24.7552 49.7459 24.4928 49.7398 24.229V12.2891L52.3398 14.8989C52.8314 15.4115 53.4238 15.8167 54.0798 16.0889C54.7377 16.3677 55.4453 16.5109 56.1598 16.5093C56.8713 16.5129 57.576 16.3696 58.2298 16.0889C58.8848 15.8094 59.4792 15.4053 59.9798 14.8989L62.5498 12.3188V24.229C62.5441 24.7592 62.7491 25.2699 63.1198 25.6489C63.299 25.839 63.5164 25.9889 63.7577 26.0889C63.999 26.1888 64.2587 26.2366 64.5198 26.229C64.7821 26.2349 65.0429 26.1867 65.2855 26.0869C65.5282 25.9871 65.7476 25.8377 65.9298 25.6489C66.1189 25.4648 66.268 25.2438 66.3678 24.9995C66.4676 24.7552 66.5159 24.4928 66.5098 24.229V7.51904C66.5159 7.2552 66.4676 6.99286 66.3678 6.74854C66.268 6.50421 66.1189 6.28324 65.9298 6.09912C65.7441 5.90652 65.5199 5.75522 65.2718 5.65527C65.0236 5.55532 64.7571 5.50889 64.4898 5.51904ZM145.8 22.229H143.42C142.574 22.2344 141.736 22.0641 140.96 21.729C140.216 21.4061 139.538 20.9483 138.96 20.3789C138.063 19.4921 137.453 18.3569 137.209 17.1196C136.965 15.8823 137.097 14.6 137.59 13.439C137.911 12.6891 138.377 12.0097 138.96 11.439C139.538 10.8695 140.216 10.4117 140.96 10.0889C141.735 9.75061 142.574 9.58021 143.42 9.58887H145.8C146.065 9.59363 146.329 9.5428 146.573 9.43945C146.818 9.33611 147.038 9.18294 147.22 8.98926C147.406 8.80119 147.554 8.57751 147.653 8.33203C147.753 8.08655 147.803 7.82397 147.8 7.55908C147.806 7.29524 147.758 7.03289 147.658 6.78857C147.558 6.54425 147.409 6.32328 147.22 6.13916C147.033 5.9538 146.811 5.80705 146.568 5.70752C146.324 5.60799 146.063 5.55756 145.8 5.55908H143.42C142.045 5.55696 140.683 5.83583 139.42 6.37891C136.939 7.44008 134.96 9.4124 133.89 11.8892C133.34 13.1506 133.061 14.5132 133.07 15.8892C133.065 17.2647 133.344 18.6264 133.89 19.8892C134.426 21.1124 135.186 22.2245 136.13 23.1689C137.081 24.1051 138.196 24.8579 139.42 25.3892C140.682 25.9369 142.044 26.216 143.42 26.209H145.8C146.064 26.2151 146.326 26.1667 146.57 26.0669C146.815 25.9671 147.036 25.818 147.22 25.6289C147.409 25.4467 147.558 25.2275 147.657 24.9849C147.757 24.7422 147.806 24.4816 147.8 24.2192C147.804 23.9527 147.755 23.6877 147.655 23.4404C147.556 23.1931 147.408 22.9681 147.22 22.7788C147.032 22.5974 146.809 22.4561 146.565 22.3633C146.321 22.2705 146.061 22.2285 145.8 22.2393V22.229ZM87.9298 8.60889C86.7837 7.41793 85.3567 6.53436 83.7798 6.03906C82.2006 5.52168 80.5209 5.38785 78.8798 5.64893C77.5944 5.88452 76.3616 6.34863 75.2398 7.01904C74.11 7.68901 73.127 8.58025 72.3498 9.63916C72.2398 9.76916 72.1398 9.89906 72.0398 10.0391L71.7698 10.4492C70.8254 11.9507 70.2973 13.6764 70.2398 15.4492C70.1543 17.2139 70.5263 18.9703 71.3198 20.5488C71.715 21.3569 72.2235 22.1046 72.8298 22.769C73.4176 23.4282 74.0901 24.0068 74.8298 24.4893C75.5774 24.9813 76.3836 25.3774 77.2298 25.6689C78.0823 25.9657 78.9697 26.1509 79.8698 26.2192C79.9798 26.2192 80.4498 26.2192 80.5798 26.2192C80.8408 26.2262 81.1004 26.1781 81.3416 26.0781C81.5828 25.9782 81.8002 25.8287 81.9798 25.6392C82.3469 25.2585 82.5482 24.748 82.5398 24.2192C82.5527 23.9532 82.5097 23.687 82.4138 23.4385C82.3178 23.19 82.171 22.9647 81.9826 22.7764C81.7943 22.588 81.5686 22.4412 81.3201 22.3452C81.0717 22.2493 80.8059 22.2064 80.5398 22.2192H80.4098C79.6011 22.1921 78.8044 22.0158 78.0598 21.6992C77.3946 21.429 76.7846 21.0388 76.2598 20.5488C75.7508 20.0831 75.3187 19.5399 74.9798 18.939L75.1598 19.2891L75.4798 19.8691L75.1898 19.3691C75.1098 19.2091 75.0198 19.0391 74.9398 18.8691V18.939L74.7998 18.6792C74.6575 18.421 74.5403 18.1497 74.4498 17.8691H88.7698C89.3079 17.8604 89.8211 17.6416 90.1998 17.2593C90.393 17.0777 90.5482 16.8592 90.6564 16.6172C90.7646 16.3751 90.8235 16.1142 90.8298 15.8491V15.7192C90.8355 14.3886 90.5666 13.071 90.0398 11.8491C89.5372 10.6539 88.8223 9.55962 87.9298 8.61914V8.60889ZM74.5398 13.8892C74.7675 13.1995 75.1052 12.5512 75.5398 11.9692C75.986 11.3829 76.5308 10.8785 77.1498 10.479C77.8921 10.0097 78.7224 9.6967 79.5898 9.55908C80.4503 9.4178 81.3315 9.46893 82.1698 9.70898C83.0185 9.93498 83.8117 10.3332 84.4998 10.8789C85.1884 11.4206 85.7543 12.1023 86.1598 12.8789C86.3328 13.2014 86.4832 13.5355 86.6098 13.8789L74.5398 13.8892ZM106.88 5.48926H106.59C104.069 5.41522 101.552 5.75299 99.1398 6.48926C97.9196 6.97282 96.8155 7.70859 95.8998 8.64893C94.9922 9.59107 94.2667 10.6929 93.7598 11.8989C93.2278 13.1649 92.959 14.5258 92.9698 15.8989V24.269C92.9683 24.5323 93.0187 24.7929 93.1183 25.0366C93.2178 25.2803 93.3644 25.5021 93.5498 25.689C93.7339 25.878 93.9551 26.0272 94.1994 26.127C94.4437 26.2267 94.706 26.2752 94.9698 26.269C95.2347 26.2719 95.4975 26.2221 95.743 26.1226C95.9885 26.023 96.2117 25.8755 96.3998 25.689C96.5935 25.5073 96.7469 25.2871 96.8503 25.0425C96.9536 24.7979 97.0046 24.5345 96.9998 24.269V15.8989C96.9912 15.072 97.1511 14.2523 97.4698 13.4893C97.7684 12.7488 98.2025 12.0705 98.7498 11.4893C99.3059 10.9207 99.9596 10.4565 100.68 10.1191C101.68 9.65914 104.68 9.53906 106.63 9.53906H106.79C107.32 9.53906 107.829 9.3282 108.204 8.95312C108.579 8.57805 108.79 8.0695 108.79 7.53906C108.794 7.28532 108.745 7.03336 108.647 6.79932C108.549 6.56527 108.403 6.35433 108.22 6.1792C107.871 5.80009 107.393 5.5646 106.88 5.51904V5.48926ZM9.13981 7.63916C9.13117 7.62224 9.12705 7.60346 9.12787 7.58447C9.1287 7.56549 9.13442 7.54687 9.14449 7.53076C9.15456 7.51465 9.16864 7.50124 9.18534 7.49219C9.20204 7.48313 9.22082 7.47865 9.23981 7.479H29.3398C31.1847 7.44224 32.946 6.70237 34.2637 5.41064C35.5815 4.11891 36.3563 2.37262 36.4298 0.528809C36.4312 0.513039 36.4294 0.497507 36.4246 0.482422C36.4198 0.467337 36.4121 0.453001 36.4019 0.440918C36.3916 0.428835 36.3791 0.419336 36.365 0.412109C36.351 0.404883 36.3356 0.400186 36.3198 0.398926H7.99981C4.10981 0.398926 0.199808 3.68898 1.10981 7.45898L13.2598 31.3389C14.0698 32.6189 15.4498 33.749 18.6398 33.749C21.4698 33.749 23.3098 32.6289 24.0998 31.3389L34.7698 10.3389C34.7784 10.3219 34.7825 10.3032 34.7817 10.2842C34.7809 10.2652 34.7752 10.2471 34.7651 10.231C34.755 10.2148 34.741 10.2014 34.7243 10.1924C34.7076 10.1833 34.6888 10.1788 34.6698 10.1792H28.4998C28.0728 10.1683 27.6504 10.2696 27.2748 10.4731C26.8993 10.6767 26.5838 10.9751 26.3598 11.3389L18.7298 26.229C18.721 26.2482 18.7069 26.2645 18.6892 26.2759C18.6715 26.2873 18.6509 26.2935 18.6298 26.2935C18.6087 26.2935 18.5881 26.2873 18.5704 26.2759C18.5527 26.2645 18.5386 26.2482 18.5298 26.229L9.13981 7.63916Z" fill="#333333"/>
</svg>

<svg width="156" height="48" fill="none" xmlns="http://www.w3.org/2000/svg"><path d="M95 38.979h1.64c.371-.008.742.04 1.1.14.268.073.517.202.73.38.182.15.32.347.4.57.089.222.133.46.13.7a1.71 1.71 0 01-.32 1.06 1.81 1.81 0 01-.82.59 1.79 1.79 0 011 .54c.275.322.414.738.39 1.16a2.19 2.19 0 01-.2 1 1.92 1.92 0 01-.56.67c-.258.18-.546.311-.85.39a4.466 4.466 0 01-1.06.12h-1.97v-7.2l.39-.12zm1.12 1h-.43v2.08h1c.163.003.325-.02.48-.07.142-.04.274-.108.39-.2a1 1 0 00.27-.34c.061-.149.092-.309.09-.47a.9.9 0 00-.34-.77 1.48 1.48 0 00-1-.27l-.46.04zm-.43 5.24h.98a1.83 1.83 0 001.11-.3 1 1 0 00.39-.88.89.89 0 00-.38-.79 1.9 1.9 0 00-1.07-.26h-1l-.03 2.23zM106.84 39v1h-3.04v2.07h2.75v1h-2.75v2.14h3.2v1h-4.23v-7.23l4.07.02zm4.52 4.05v3.18h-1.07V39h1.07v3H115v-3h1.06v7.23H115v-3.18h-3.64zm8.57 2.17a2.67 2.67 0 00.29-.5c.145-.305.262-.623.35-.95.137-.466.244-.94.32-1.42.105-.629.171-1.263.2-1.9l.07-1.45h4.37v6.22h1v2.3h-1V46.2h-5.34v1.32h-1v-2.33l.74.03zm2-2.45c-.08.45-.17.84-.26 1.18a8.187 8.187 0 01-.29.82 3.2 3.2 0 01-.24.45h3.33v-5.21h-2.25l-.1 1.27c-.034.49-.097.978-.19 1.46v.03zM129.7 39h1.07v5.46l4.09-5.46h.94v7.23h-1.08v-5.45l-4.08 5.45h-.94V39zm11 4.05v3.18h-1.1V39h1.07v3h3.64v-3h1.07v7.23h-1.07v-3.18h-3.61zM153.26 39v1h-3v6.22h-1.07v-7.23l4.07.01zm-2.09-14.48a1.9 1.9 0 011.93-2 2 2 0 11-1.93 2zm-75.93-5.14l.29.5-.32-.58-.18-.35v-.07c.04.21.13.38.21.54v-.04zm51.6-10.88a10.725 10.725 0 00-3.29-2.22 10.251 10.251 0 00-8.08 0 11.004 11.004 0 00-3.33 2.28 10.735 10.735 0 00-2.32 3.67 9.87 9.87 0 00-.64 3.57v8.37a2.001 2.001 0 002 2 2 2 0 001.19-.37 1.873 1.873 0 00.707-1.035.105.105 0 00-.007-.035.089.089 0 010-.06 5.614 5.614 0 01.87-1.77 5.992 5.992 0 011.37-1.39 6.586 6.586 0 011.75-.9 6.49 6.49 0 012-.32c.116.015.234.015.35 0h6.34v3.86a1.903 1.903 0 00.6 1.42 1.993 1.993 0 001.43.58 2 2 0 002-2v-8.37a10.203 10.203 0 00-.82-4 10.525 10.525 0 00-2.12-3.26V8.5zm-1 7.81h-6.69a10.17 10.17 0 00-6 1.9v-2.39a6.36 6.36 0 01.34-2.06 6.846 6.846 0 013.17-3.59 5.998 5.998 0 012.85-.69 6.2 6.2 0 015 2.42c.094.111.18.228.26.35l.26.39a.085.085 0 000 .05c.534.941.81 2.007.8 3.09l.01.53zM64.49 5.52a2 2 0 00-1.13.35l-5.92 6a1.92 1.92 0 01-2.61 0L49.1 6.11l-.26-.23a2 2 0 00-1.13-.35 1.9 1.9 0 00-1.41.58 1.921 1.921 0 00-.58 1.42v16.7a1.92 1.92 0 00.58 1.42 2.05 2.05 0 002.86 0 1.92 1.92 0 00.58-1.42V12.29l2.6 2.61a5.14 5.14 0 001.74 1.19 5.301 5.301 0 002.08.42 5.181 5.181 0 002.07-.42 5.49 5.49 0 001.75-1.19l2.57-2.58v11.91a2 2 0 00.57 1.42 1.85 1.85 0 001.4.58 1.9 1.9 0 001.41-.58 1.92 1.92 0 00.58-1.42V7.519a1.92 1.92 0 00-.58-1.42 1.9 1.9 0 00-1.44-.58zm81.31 16.71h-2.38a6.108 6.108 0 01-2.46-.5 6.587 6.587 0 01-2-1.35 6.296 6.296 0 01-1.37-6.94c.321-.75.787-1.43 1.37-2a6.583 6.583 0 012-1.35 5.998 5.998 0 012.46-.5h2.38a1.897 1.897 0 001.42-.6 2 2 0 00.58-1.43 1.919 1.919 0 00-.58-1.42 2.008 2.008 0 00-1.42-.58h-2.38a10.09 10.09 0 00-4 .82 10.539 10.539 0 00-5.53 5.51 9.846 9.846 0 00-.82 4 9.987 9.987 0 00.82 4 10.733 10.733 0 002.24 3.28 10.845 10.845 0 003.29 2.22 9.92 9.92 0 004 .82h2.38a1.916 1.916 0 001.42-.58 1.896 1.896 0 00.58-1.41 1.998 1.998 0 00-.58-1.44 1.933 1.933 0 00-1.42-.54v-.01zM87.93 8.609a9.86 9.86 0 00-4.15-2.57 10.46 10.46 0 00-4.9-.39 10.94 10.94 0 00-3.64 1.37 9.76 9.76 0 00-2.89 2.62c-.11.13-.21.26-.31.4l-.27.41a10 10 0 00-1.53 5 10.249 10.249 0 001.08 5.1 9.458 9.458 0 001.51 2.22 10 10 0 002 1.72 10.711 10.711 0 005.04 1.73h.71a1.86 1.86 0 001.4-.58 2 2 0 00.56-1.42 1.912 1.912 0 00-2-2h-.13a6.568 6.568 0 01-2.35-.52 5.881 5.881 0 01-1.8-1.15 6.53 6.53 0 01-1.28-1.61l.18.35.32.58-.29-.5c-.08-.16-.17-.33-.25-.5v.07l-.14-.26a4.61 4.61 0 01-.35-.81h14.32a2.06 2.06 0 001.43-.61 2.004 2.004 0 00.63-1.41v-.13a9.67 9.67 0 00-.79-3.87 10.74 10.74 0 00-2.11-3.23v-.01zm-13.39 5.28a6.74 6.74 0 011-1.92 6.352 6.352 0 011.61-1.49 6.46 6.46 0 012.44-.92 5.9 5.9 0 012.58.15 6.4 6.4 0 012.33 1.17 6.19 6.19 0 011.66 2c.173.322.323.657.45 1l-12.07.01zm32.34-8.4h-.29a23.19 23.19 0 00-7.45 1 9.31 9.31 0 00-3.24 2.16 10.61 10.61 0 00-2.14 3.25 10.12 10.12 0 00-.79 4v8.37a1.998 1.998 0 00.58 1.42 1.921 1.921 0 001.42.58 2 2 0 001.43-.58 1.901 1.901 0 00.6-1.42v-8.37a6.087 6.087 0 01.47-2.41 6.419 6.419 0 011.28-2 6.638 6.638 0 011.93-1.37c1-.46 4-.58 5.95-.58h.16a2 2 0 002-2 1.84 1.84 0 00-.57-1.36 2.07 2.07 0 00-1.34-.66v-.03zM9.14 7.64a.11.11 0 01.1-.16h20.1A7.24 7.24 0 0036.43.53a.122.122 0 00-.028-.088.12.12 0 00-.037-.029A.12.12 0 0036.32.4H8C4.11.4.2 3.69 1.11 7.46l12.15 23.88c.81 1.28 2.19 2.41 5.38 2.41 2.83 0 4.67-1.12 5.46-2.41l10.67-21a.11.11 0 00-.046-.147.11.11 0 00-.054-.013H28.5a2.44 2.44 0 00-2.14 1.16l-7.63 14.89a.11.11 0 01-.1.065.11.11 0 01-.1-.065L9.14 7.639z" fill="#333"/></svg>
